X:1
T:Title
%%score { ( 1 3 ) | ( 2 4 ) }
L:1/8
Q:1/4=84
M:6/8
K:C
V:1 treble nm="Grand Piano"
V:3 treble 
V:2 bass 
V:4 bass 
V:1
 [EG]>[EA][EB] [Ec]>[EB][Ec] | d>cA [EG]3 | [EG]>[EA][EB] [Ec]>[EB][Ec] | d3 z3 | %4
w: E.~O.~Excell * * * * *||||
 [EG]>[EA][EB] [Ec]>[EB][Ec] | d>cA [EG]3 | [EG]>[Ec][Ec] [DB]>[DB][FB] | c6 | %8
w: ||||
 [EG]>[EA][EB] [Ec]3 | A>Bc G3 | [EG]>[EA][EB] [Ec]>[EB][Ec] | d3 z3 | G>AB [Ec]3 | A>Bc G3 | %14
w: ||||||
 [EG]>[Ec][Ec] [DB]>[DB][FB] | c6 |] %16
w: ||
V:2
 [C,C]>[C,C][C,C] [C,G,]>[C,G,][C,G,] | [F,A,F]>[F,A,F][F,CF] [C,C]3 | %2
 [C,C]>[C,C][C,C] [C,C]>[C,C][C,C] | .[B,G]3 z3 | [C,C]>[C,C][C,C] [C,G,]>[C,G,][C,G,] | %5
 [F,A,F]>[F,A,F][F,CF] [C,C]3 | [C,C]>[C,G,][C,G,] [G,,G,]>[G,,G,][G,,G,] | .G,3 z3 | %8
 [C,C]>[C,C][C,C] [C,C]3 | [F,CF]>[F,CF][A,CF] [CE]3 | [C,C]>[C,C][C,C] [C,C]>[C,C][C,C] | %11
 [B,G]2 C [DF]3 | [G,B,F]>[G,CF][G,DF][K:bass] [C,C]3 | [F,CF]>[K:treble][F,CF][A,CF] [CE]3 | %14
 [C,C]>[C,G,][C,G,] [G,,G,]>[G,,G,][G,,G,] | .G,3 z3 |] %16
V:3
 x6 | x6 | x6 | z2 ^F [=FG]3 | x6 | x6 | x6 | E2 F E3 | x6 | x6 | x6 | z2 ^F G3 | x6 | x6 | x6 | %15
 E2 F E3 |] %16
V:4
 x6 | x6 | x6 | G,2- [G,-C] [G,D]3 | x6 | x6 | x6 | C,2- [C,-A,] [C,G,]3 | x6 | x6 | x6 | G,6 | %12
 x3[K:bass] x3 | x3/2[K:treble] x9/2 | x6 | C,2- [C,-A,] [C,G,]3 |] %16

